img/sprite/gradient/card-message.svg

<svg width="48" height="48" viewBox="0 0 48 48" fill="none" xmlns="http://www.w3.org/2000/svg">
<g clip-path="url(#clip0_84_3523)">
<mask id="mask0_84_3523" style="mask-type:luminance" maskUnits="userSpaceOnUse" x="0" y="0" width="48" height="48">
<path d="M0 3.8147e-06H48V48H0V3.8147e-06Z" fill="white"/>
</mask>
<g mask="url(#mask0_84_3523)">
<path fill-rule="evenodd" clip-rule="evenodd" d="M39.797 40.1621C39.797 40.5504 40.1118 40.8652 40.5001 40.8652H43.207C45.8563 40.8652 48 38.7111 48 36.0587V16.4756C48 13.8232 45.8563 11.669 43.207 11.669H32.429C32.0407 11.669 31.7259 11.9838 31.7259 12.3722C31.7259 12.7605 32.0407 13.0753 32.429 13.0753H43.207C45.0753 13.0753 46.5938 14.5954 46.5938 16.4756V36.0587C46.5938 37.9388 45.0753 39.459 43.207 39.459H40.5001C40.1118 39.459 39.797 39.7738 39.797 40.1621Z" fill="url(#paint0_linear_84_3523)"/>
<path fill-rule="evenodd" clip-rule="evenodd" d="M6.56255 47.9381C6.81494 48.0516 7.11043 48.0065 7.31748 47.8229L15.1638 40.8649H36.3454C36.7337 40.8649 37.0485 40.5501 37.0485 40.1617C37.0485 39.7734 36.7337 39.4586 36.3454 39.4586H14.897C14.725 39.4586 14.5591 39.5216 14.4305 39.6357L7.55409 45.7336V40.1617C7.55409 39.7734 7.23929 39.4586 6.85097 39.4586H4.79306C2.92484 39.4586 1.40625 37.9385 1.40625 36.0583V16.4753C1.40625 14.5952 2.92486 13.0749 4.79306 13.0749H15.3665C15.7548 13.0749 16.0696 12.7601 16.0696 12.3718C16.0696 11.9835 15.7548 11.6687 15.3665 11.6687H4.79306C2.14383 11.6687 0 13.8229 0 16.4753V36.0583C0 38.7108 2.14385 40.8649 4.79306 40.8649H6.14784V47.2969C6.14784 47.5736 6.31017 47.8246 6.56255 47.9381Z" fill="url(#paint1_linear_84_3523)"/>
<path fill-rule="evenodd" clip-rule="evenodd" d="M7.53107 22.0127C7.53107 22.401 7.84587 22.7158 8.23419 22.7158H39.7659C40.1542 22.7158 40.469 22.401 40.469 22.0127C40.469 21.6244 40.1542 21.3096 39.7659 21.3096H8.23419C7.84587 21.3096 7.53107 21.6244 7.53107 22.0127Z" fill="url(#paint2_linear_84_3523)"/>
<path fill-rule="evenodd" clip-rule="evenodd" d="M7.53107 26.7656C7.53107 27.154 7.84587 27.4688 8.23419 27.4688H39.7659C40.1542 27.4688 40.469 27.154 40.469 26.7656C40.469 26.3773 40.1542 26.0625 39.7659 26.0625H8.23419C7.84587 26.0625 7.53107 26.3773 7.53107 26.7656Z" fill="url(#paint3_linear_84_3523)"/>
<path fill-rule="evenodd" clip-rule="evenodd" d="M7.53107 31.5176C7.53107 31.9059 7.84587 32.2207 8.23419 32.2207H27.1557C27.544 32.2207 27.8588 31.9059 27.8588 31.5176C27.8588 31.1293 27.544 30.8145 27.1557 30.8145H8.23419C7.84587 30.8145 7.53107 31.1293 7.53107 31.5176Z" fill="url(#paint4_linear_84_3523)"/>
<path fill-rule="evenodd" clip-rule="evenodd" d="M14.4196 9.58082C14.4196 14.8719 18.709 19.1611 24 19.1611C29.2912 19.1611 33.5804 14.8719 33.5804 9.58082C33.5804 4.28975 29.2912 0.000415802 24 0.000415802C22.3016 0.000415802 20.7043 0.443054 19.3195 1.2198C18.9809 1.40978 18.8603 1.83834 19.0503 2.17702C19.2403 2.51571 19.6688 2.63626 20.0075 2.44628C21.1876 1.78434 22.5487 1.40667 24 1.40667C28.5145 1.40667 32.1742 5.06639 32.1742 9.58082C32.1742 14.0952 28.5145 17.7549 24 17.7549C19.4856 17.7549 15.8259 14.0952 15.8259 9.58082C15.8259 7.74226 16.4321 6.0473 17.4557 4.68215C17.6887 4.37146 17.6257 3.93075 17.315 3.69778C17.0044 3.46482 16.5636 3.52782 16.3307 3.8385C15.1308 5.43865 14.4196 7.4277 14.4196 9.58082Z" fill="url(#paint5_linear_84_3523)"/>
<path fill-rule="evenodd" clip-rule="evenodd" d="M18.436 15.5657C19.6192 13.7446 21.6692 12.5419 23.9998 12.5419C26.2781 12.5419 28.302 13.7375 29.5409 15.5871C28.0834 16.9329 26.1386 17.7549 24 17.7549C21.8501 17.7549 19.8959 16.9242 18.436 15.5657ZM17.0406 16.1613C18.7857 18.0063 21.2576 19.1611 24 19.1611C26.7338 19.1611 29.1987 18.0134 30.9429 16.1787C31.1565 15.954 31.1978 15.6159 31.0444 15.3464C29.6212 12.8461 27.0151 11.1357 23.9998 11.1357C20.9466 11.1357 18.2936 12.8389 16.9336 15.3425C16.7883 15.6098 16.8315 15.9403 17.0406 16.1613Z" fill="url(#paint6_linear_84_3523)"/>
<path fill-rule="evenodd" clip-rule="evenodd" d="M19.8708 8.4364C19.8708 10.7168 21.7193 12.5654 23.9998 12.5654C26.2802 12.5654 28.1289 10.7168 28.1289 8.4364C28.1289 6.1559 26.2802 4.30737 23.9998 4.30737C21.7193 4.30737 19.8708 6.15592 19.8708 8.4364ZM23.9998 11.1592C22.496 11.1592 21.277 9.94015 21.277 8.4364C21.277 6.93257 22.496 5.71362 23.9998 5.71362C25.5036 5.71362 26.7226 6.93258 26.7226 8.4364C26.7226 9.94014 25.5036 11.1592 23.9998 11.1592Z" fill="url(#paint7_linear_84_3523)"/>
</g>
</g>
<defs>
<linearGradient id="paint0_linear_84_3523" x1="31.7259" y1="26.2671" x2="48" y2="26.2671" gradientUnits="userSpaceOnUse">
<stop offset="0" stop-color="#0CBAF1"/>
<stop offset="1" stop-color="#E95CE9"/>
</linearGradient>
<linearGradient id="paint1_linear_84_3523" x1="0" y1="29.8343" x2="37.0485" y2="29.8343" gradientUnits="userSpaceOnUse">
<stop offset="0" stop-color="#0CBAF1"/>
<stop offset="1" stop-color="#E95CE9"/>
</linearGradient>
<linearGradient id="paint2_linear_84_3523" x1="7.53107" y1="22.0127" x2="40.469" y2="22.0127" gradientUnits="userSpaceOnUse">
<stop offset="0" stop-color="#0CBAF1"/>
<stop offset="1" stop-color="#E95CE9"/>
</linearGradient>
<linearGradient id="paint3_linear_84_3523" x1="7.53107" y1="26.7656" x2="40.469" y2="26.7656" gradientUnits="userSpaceOnUse">
<stop offset="0" stop-color="#0CBAF1"/>
<stop offset="1" stop-color="#E95CE9"/>
</linearGradient>
<linearGradient id="paint4_linear_84_3523" x1="7.53107" y1="31.5176" x2="27.8588" y2="31.5176" gradientUnits="userSpaceOnUse">
<stop offset="0" stop-color="#0CBAF1"/>
<stop offset="1" stop-color="#E95CE9"/>
</linearGradient>
<linearGradient id="paint5_linear_84_3523" x1="14.4196" y1="9.58077" x2="33.5804" y2="9.58077" gradientUnits="userSpaceOnUse">
<stop offset="0" stop-color="#0CBAF1"/>
<stop offset="1" stop-color="#E95CE9"/>
</linearGradient>
<linearGradient id="paint6_linear_84_3523" x1="16.8483" y1="15.1484" x2="31.1365" y2="15.1484" gradientUnits="userSpaceOnUse">
<stop offset="0" stop-color="#0CBAF1"/>
<stop offset="1" stop-color="#E95CE9"/>
</linearGradient>
<linearGradient id="paint7_linear_84_3523" x1="19.8708" y1="8.4364" x2="28.1289" y2="8.4364" gradientUnits="userSpaceOnUse">
<stop offset="0" stop-color="#0CBAF1"/>
<stop offset="1" stop-color="#E95CE9"/>
</linearGradient>
<clipPath id="clip0_84_3523">
<rect width="48" height="48" fill="white"/>
</clipPath>
</defs>
</svg>

<svg width="48" height="48" fill="none" xmlns="http://www.w3.org/2000/svg"><g clip-path="url(#a)"><mask id="b" style="mask-type:luminance" maskUnits="userSpaceOnUse" x="0" y="0" width="48" height="48"><path d="M0 0h48v48H0V0Z" fill="#fff"/></mask><g mask="url(#b)" fill-rule="evenodd" clip-rule="evenodd"><path d="M39.797 40.162c0 .388.315.703.703.703h2.707A4.8 4.8 0 0 0 48 36.06V16.476a4.8 4.8 0 0 0-4.793-4.807H32.429a.703.703 0 0 0 0 1.406h10.778a3.394 3.394 0 0 1 3.387 3.4V36.06c0 1.88-1.519 3.4-3.387 3.4H40.5a.703.703 0 0 0-.703.703Z" fill="url(#c)"/><path d="M6.563 47.938a.703.703 0 0 0 .754-.115l7.847-6.958h21.181a.703.703 0 0 0 0-1.406H14.897a.703.703 0 0 0-.466.177l-6.877 6.098v-5.572a.703.703 0 0 0-.703-.703H4.793a3.394 3.394 0 0 1-3.387-3.4V16.474c0-1.88 1.519-3.4 3.387-3.4h10.574a.703.703 0 0 0 0-1.406H4.793A4.8 4.8 0 0 0 0 16.475v19.583a4.8 4.8 0 0 0 4.793 4.807h1.355v6.432c0 .277.162.528.415.641Z" fill="url(#d)"/><path d="M7.531 22.013c0 .388.315.703.703.703h31.532a.703.703 0 0 0 0-1.406H8.234a.703.703 0 0 0-.703.703Z" fill="url(#e)"/><path d="M7.531 26.766c0 .388.315.703.703.703h31.532a.703.703 0 0 0 0-1.407H8.234a.703.703 0 0 0-.703.704Z" fill="url(#f)"/><path d="M7.531 31.518c0 .388.315.703.703.703h18.922a.703.703 0 0 0 0-1.406H8.234a.703.703 0 0 0-.703.703Z" fill="url(#g)"/><path d="M14.42 9.58A9.58 9.58 0 0 0 24 19.162 9.58 9.58 0 1 0 19.32 1.22a.703.703 0 0 0 .688 1.226 8.174 8.174 0 1 1-2.552 2.236.703.703 0 1 0-1.125-.844 9.54 9.54 0 0 0-1.911 5.743Z" fill="url(#h)"/><path d="M18.436 15.566A6.624 6.624 0 0 1 24 12.542c2.278 0 4.302 1.196 5.54 3.045A8.138 8.138 0 0 1 24 17.755c-2.15 0-4.104-.83-5.564-2.19Zm-1.395.595a9.553 9.553 0 0 0 6.959 3 9.553 9.553 0 0 0 6.943-2.982.703.703 0 0 0 .101-.833c-1.423-2.5-4.029-4.21-7.044-4.21a8.035 8.035 0 0 0-7.066 4.207.703.703 0 0 0 .107.818Z" fill="url(#i)"/><path d="M19.87 8.436a4.129 4.129 0 1 0 8.259 0 4.129 4.129 0 0 0-8.258 0ZM24 11.16a2.723 2.723 0 1 1 0-5.445 2.723 2.723 0 0 1 0 5.445Z" fill="url(#j)"/></g></g><defs><linearGradient id="c" x1="31.726" y1="26.267" x2="48" y2="26.267" gradientUnits="userSpaceOnUse"><stop offset="0" stop-color="#0CBAF1"/><stop offset="1" stop-color="#E95CE9"/></linearGradient><linearGradient id="d" x1="0" y1="29.834" x2="37.048" y2="29.834" gradientUnits="userSpaceOnUse"><stop offset="0" stop-color="#0CBAF1"/><stop offset="1" stop-color="#E95CE9"/></linearGradient><linearGradient id="e" x1="7.531" y1="22.013" x2="40.469" y2="22.013" gradientUnits="userSpaceOnUse"><stop offset="0" stop-color="#0CBAF1"/><stop offset="1" stop-color="#E95CE9"/></linearGradient><linearGradient id="f" x1="7.531" y1="26.766" x2="40.469" y2="26.766" gradientUnits="userSpaceOnUse"><stop offset="0" stop-color="#0CBAF1"/><stop offset="1" stop-color="#E95CE9"/></linearGradient><linearGradient id="g" x1="7.531" y1="31.518" x2="27.859" y2="31.518" gradientUnits="userSpaceOnUse"><stop offset="0" stop-color="#0CBAF1"/><stop offset="1" stop-color="#E95CE9"/></linearGradient><linearGradient id="h" x1="14.42" y1="9.581" x2="33.58" y2="9.581" gradientUnits="userSpaceOnUse"><stop offset="0" stop-color="#0CBAF1"/><stop offset="1" stop-color="#E95CE9"/></linearGradient><linearGradient id="i" x1="16.848" y1="15.148" x2="31.137" y2="15.148" gradientUnits="userSpaceOnUse"><stop offset="0" stop-color="#0CBAF1"/><stop offset="1" stop-color="#E95CE9"/></linearGradient><linearGradient id="j" x1="19.871" y1="8.436" x2="28.129" y2="8.436" gradientUnits="userSpaceOnUse"><stop offset="0" stop-color="#0CBAF1"/><stop offset="1" stop-color="#E95CE9"/></linearGradient><clipPath id="a"><path fill="#fff" d="M0 0h48v48H0z"/></clipPath></defs></svg>
